X:82
T:Shutter Hornpipe. JBi.81
M:C
Q:1/2=90
S:James Biggins MS, Leeds, 1779
R:.Hornpipe
O:England
A:Yorkshire
N:Otherwise well known..
Z:vmp.Chris Partington
K:A
â€œ_unedited,key unclear in msâ€A2AA ABcd|\
ecdB AcdB|B2BB Bdfe|dcBA GBGE|!
A2AA ABcd|ecdBA2g2|gbge aged|e2eee4:|!
|:B2BBB2cd|ecBA GBGE|e2eee2fg|bfed cecA|!
f2d2dfaf|e2c2 ceae|fdec dBAG|A2AAA2:|

